X: 41770
T: Varsovienne
R: mazurka
M: 3/4
K: Bminor
|:d>B G2 G2|e>c A2 G2|^F>D E>F G>A|B>A B>c d>B|
d>B G2 G2|e>c A2 A2|D>^F A>c B>A|G2 G4:|
|:B>G c>B A>G|G2 ^F4|D>^F A>c B>A|G>^F G>A B>G|
>G c>B A>G|G2 ^F4|D>^F A>c B>A|G2 G4:|

